!!!OTL: Li'l Liza Jane
!!!COM: Countess Ada de Lacuau
!!!LAR: Frey, Hugo
!! "Li'l Liza Jane" by Countess Ada de Lachau
!! from "Barbershop Memories" compiled and arranged by Hugo Frey
!! copyright 1975 by EMI Music Publ. Ltd.; p. 19; in E- major
!! NOTE:  The second ending is encoded.
**kern	**kern	**kern	**kern
*Ivox	*Ivox	*Ivox	*Ivox
*M2/4	*M2/4	*M2/4	*M2/4
*E-:	*E-:	*E-:	*E-:
=1	=1	=1	=1
8G	8G	2r	2r
[16E-	[16E-	.	.
16E-]	16E-]	.	.
8F	8F	.	.
8E-	8E-	.	.
=2	=2	=2	=2
8G	8G	2r	2r
8E-	8E-	.	.
4F	4F	.	.
=3	=3	=3	=3
8E-	8B-	8e-	8g
4E-	4B-	4e-	4g
8E-	8G	8B-	8e-
=4	=4	=4	=4
2E-	2B-	2e-	2g
=5	=5	=5	=5
8G	8G	2r	2r
[16E-	[16E-	.	.
16E-]	16E-]	.	.
8F	8F	.	.
8E-	8E-	.	.
=6	=6	=6	=6
8G	8G	2r	2r
8E-	8E-	.	.
4F	4F	.	.
=7	=7	=7	=7
8E-	8G	8B-	8e-
4E-	4G	4B-	4e-
8C	8A-	8A-	8e-
=8	=8	=8	=8
2E-	2G	2B-	2e-
=9	=9	=9	=9
2E-	{4.B-	{4.e-	{4.g
.	8G}	8B-}	8e-}
=10	=10	=10	=10
4AA-	4A-	4c	4e-
4E-	4G	4B-	4e-
=11	=11	=11	=11
4E-	8B-	8e-	8g
.	4B-	4e-	4g
4D	.	.	.
.	8G	8B-	8e-
=12	=12	=12	=12
4C	2B-	2e-	2g
4BB-	.	.	.
=13	=13	=13	=13
2E-	{4.B-	{4.e-	{4.g
.	8G}	8B-}	8e-}
=14	=14	=14	=14
4AA-	4A-	4c	4e-
4E-	4G	4B-	4e-
=15	=15	=15	=15
8BB-	8G	8B-	8e-
4BB-	4G	4B-	4e-
8BB-	8B-	8d	8f
=16	=16	=16	=16
2E-	2B-	2e-	2g
==	==	==	==
*-	*-	*-	*-
